color/xas.svg

<svg height="32" viewBox="0 0 32 32" width="32" xmlns="http://www.w3.org/2000/svg"><g fill="none" fill-rule="evenodd"><circle cx="16" cy="16" fill="#faa00d" r="16"/><path d="M25.992 14.471l-9.469 11.01-.425.519L6.007 14.582l.032-.013L6 14.563l3.922-6.557.002.002L9.922 8h12.254l-.002.007L26 14.47zm-13.136.459l-2.17 3.674 5.352 6.112 5.363-6.162-2.122-3.635zm-2.778 2.98l1.76-2.979-4.362.007zm9.723-3.846l4.954-.008-3.11-5.208-4.882.01zm4.771.846l-4.273.007 1.713 2.935zm-5.791-.844L16.09 9.454l-2.73 4.62zm-8.399-5.194l-3.1 5.213 5.06-.009 3.08-5.214z" fill="#fff" fill-rule="nonzero"/></g></svg>

<!-- Generated by IcoMoon.io -->
<svg version="1.1" xmlns="http://www.w3.org/2000/svg" width="32" height="32" viewBox="0 0 32 32">
<title>xas</title>
<path fill="#faa00d" d="M32 16c0 8.837-7.163 16-16 16s-16-7.163-16-16c0-8.837 7.163-16 16-16s16 7.163 16 16z"></path>
<path fill="#fff" d="M25.992 14.471l-9.469 11.010-0.425 0.519-10.091-11.418 0.032-0.013-0.039-0.006 3.922-6.557 0.002 0.002-0.002-0.008 12.252 0.007 3.826 6.463zM12.856 14.93l-2.17 3.674 5.352 6.112 5.363-6.162-2.122-3.635zM10.078 17.91l1.76-2.979-4.362 0.007zM19.801 14.064l4.954-0.008-3.11-5.208-4.882 0.010zM24.572 14.91l-4.273 0.007 1.713 2.935zM18.781 14.066l-2.691-4.612-2.73 4.62zM10.382 8.872l-3.1 5.213 5.060-0.009 3.080-5.214z"></path>
</svg>
